X:1
T:Title
L:1/8
Q:1/4=100
M:6/8
K:D
V:1 treble nm="Grand Piano"
V:1
 F3 FG>E | D3 A,3 | A3 AB>G | F3 E3 | G3 GFE | F3 AAA | ^G3 GAB | A3 G3 | FGA B3 | G3 E3 | EFG A3 | %11
w: ????~????~????? * * *|||||||||||
 G3 F3 | DEF G3 | E2 D C3 | CDE D2 E | F2 G A3 | FGA B3 | dcB A3 | AGF G3 | BAG F3 | FED G3 | %21
w: ||||||||||
 E2 D C3 | CDE D3 | F3 E3 | CDE D3 |] %25
w: ||||

